assets/icons/ordered-list/remove.svg

<?xml version="1.0" encoding="UTF-8" standalone="no"?>
<svg
   viewBox="0 0 24 24"
   height="24"
   id="svg7384"
   version="1.1"
   width="24"
   sodipodi:docname="remove.svg"
   inkscape:version="1.2 (1:1.2.1+202207142221+cd75a1ee6d)"
   xmlns:inkscape="http://www.inkscape.org/namespaces/inkscape"
   xmlns:sodipodi="http://sodipodi.sourceforge.net/DTD/sodipodi-0.dtd"
   xmlns="http://www.w3.org/2000/svg"
   xmlns:svg="http://www.w3.org/2000/svg"
   xmlns:rdf="http://www.w3.org/1999/02/22-rdf-syntax-ns#"
   xmlns:cc="http://creativecommons.org/ns#"
   xmlns:dc="http://purl.org/dc/elements/1.1/">
  <sodipodi:namedview
     id="namedview21"
     pagecolor="#ffffff"
     bordercolor="#666666"
     borderopacity="1.0"
     inkscape:pageshadow="2"
     inkscape:pageopacity="0.0"
     inkscape:pagecheckerboard="0"
     showgrid="true"
     inkscape:snap-page="true"
     inkscape:zoom="28"
     inkscape:cx="15.5"
     inkscape:cy="13.357143"
     inkscape:window-width="1920"
     inkscape:window-height="1043"
     inkscape:window-x="0"
     inkscape:window-y="0"
     inkscape:window-maximized="1"
     inkscape:current-layer="svg7384"
     inkscape:showpageshadow="2"
     inkscape:deskcolor="#d1d1d1">
    <inkscape:grid
       type="xygrid"
       id="grid1996" />
  </sodipodi:namedview>
  <metadata
     id="metadata20854">
    <rdf:RDF>
      <cc:Work
         rdf:about="">
        <dc:format>image/svg+xml</dc:format>
        <dc:type
           rdf:resource="http://purl.org/dc/dcmitype/StillImage" />
      </cc:Work>
    </rdf:RDF>
  </metadata>
  <defs
     id="defs7386">
    <linearGradient
       id="linearGradient5606"
       inkscape:swatch="solid">
      <stop
         id="stop5608"
         offset="0"
         style="stop-color:#000000;stop-opacity:1;" />
    </linearGradient>
    <linearGradient
       id="linearGradient4526"
       inkscape:swatch="solid">
      <stop
         id="stop4528"
         offset="0"
         style="stop-color:#ffffff;stop-opacity:1;" />
    </linearGradient>
    <linearGradient
       id="linearGradient3600-4"
       inkscape:swatch="gradient">
      <stop
         id="stop3602-7"
         offset="0"
         style="stop-color:#f4f4f4;stop-opacity:1" />
      <stop
         id="stop3604-6"
         offset="1"
         style="stop-color:#dbdbdb;stop-opacity:1" />
    </linearGradient>
  </defs>
  <g
     id="layer9"
     label="status"
     style="display:inline;stroke-width:0.8;fill:#808080;fill-opacity:1"
     transform="matrix(1.25,0,0,1.25,-438.00025,136.375)" />
  <g
     id="layer2"
     style="display:inline;stroke-width:0.8;fill:#808080;fill-opacity:1"
     transform="matrix(1.25,0,0,1.25,-136.75,-322.375)" />
  <g
     id="layer4"
     style="display:inline;stroke-width:0.8;fill:#808080;fill-opacity:1"
     transform="matrix(1.25,0,0,1.25,-136.75,-322.375)" />
  <g
     id="g1812"
     style="display:inline;stroke-width:0.8;fill:#808080;fill-opacity:1"
     transform="matrix(1.25,0,0,1.25,-136.75,-322.375)" />
  <g
     id="g6217"
     style="display:inline;stroke-width:0.8;fill:#808080;fill-opacity:1"
     transform="matrix(1.25,0,0,1.25,-136.75,-322.375)" />
  <g
     id="layer3"
     style="display:inline;stroke-width:0.8;fill:#808080;fill-opacity:1"
     transform="matrix(1.25,0,0,1.25,-136.75,-322.375)" />
  <g
     id="g1833"
     style="display:inline;stroke-width:0.8;fill:#808080;fill-opacity:1"
     transform="matrix(1.25,0,0,1.25,-136.75,-322.375)" />
  <g
     id="layer1"
     style="display:inline;stroke-width:0.8;fill:#808080;fill-opacity:1"
     transform="matrix(1.25,0,0,1.25,-136.75,-322.375)" />
  <path
     id="rect2020"
     style="fill:#808080;fill-opacity:1;fill-rule:evenodd;stroke-width:0.5;stroke-linecap:square"
     d="M 8.1210938 5 L 9 5.8789062 L 9 5 L 8.1210938 5 z M 11 6 L 11 7 L 21 7 L 21 6 L 11 6 z M 8 6.2929688 L 8 8 L 9 8 L 9 7.2929688 L 8 6.2929688 z M 5 10 L 5 13 L 6 13 L 6 10 L 5 10 z M 8 10 L 8 13 L 9 13 L 9 10 L 8 10 z M 11 11 L 11 12 L 13.707031 12 L 12.707031 11 L 11 11 z M 14.121094 11 L 15.121094 12 L 21 12 L 21 11 L 14.121094 11 z M 2 15 L 2 18 L 3 18 L 3 15 L 2 15 z M 5 15 L 5 18 L 6 18 L 6 15 L 5 15 z M 8 15 L 8 18 L 9 18 L 9 15 L 8 15 z M 11 16 L 11 17 L 18.707031 17 L 17.707031 16 L 11 16 z M 19.121094 16 L 20.121094 17 L 21 17 L 21 16 L 19.121094 16 z " />
  <path
     style="color:#000000;fill:#808080;-inkscape-stroke:none"
     d="m 5.3535156,3.6464844 -0.7070312,0.7070312 15.9999996,16.0000004 0.707032,-0.707032 z"
     id="path3179" />
</svg>

<svg height="24" width="24" xmlns="http://www.w3.org/2000/svg"><path style="fill:gray;fill-opacity:1;stroke-width:.5;stroke-linecap:square" d="M8.121 5 9 5.879V5h-.879zM11 6v1h10V6H11zm-3 .293V8h1v-.707l-1-1zM5 10v3h1v-3H5zm3 0v3h1v-3H8zm3 1v1h2.707l-1-1H11zm3.121 0 1 1H21v-1h-6.879zM2 15v3h1v-3H2zm3 0v3h1v-3H5zm3 0v3h1v-3H8zm3 1v1h7.707l-1-1H11zm8.121 0 1 1H21v-1h-1.879z"/><path style="color:#000;fill:gray;-inkscape-stroke:none" d="m5.354 3.646-.708.708 16 16 .708-.708z"/></svg>
